X: 21262
T: CRAIGIEBURN WOOD
Q: "Slow"
%R: jig, waltz
B: "Edinburgh Repository of Music" v.2 p.126 #2
F: http://digital.nls.uk/special-collections-of-printed-music/pageturner.cfm?id=87776133
Z: 2015 John Chambers <jc:trillian.mit.edu>
M: 6/8
L: 1/8
K: D
A/>G/ |\
F>ED EFA | B>cd A<FD | d>cB AFD | E3 A2A/G/ |\
F>ED EFA | B>cd AFD | {c}d>cB AFD | E3 A2 :|
|: A |\
~Bdc d>ef | edc cB^A | Bdc ~d>ef | {f}e3 d2c/d/ |\
ef/e/d/c/ de/d/c/B/ | AFA d2d/c/ | ~B>cd A<FD | E3 D2 :|

% - - - - tune continued onto next page - - - - %

%%sep 2 1 500
%%sep 1 1 500

